Simply-Green-Circles/scalable/apps/flash.svg

<?xml version="1.0" encoding="UTF-8" standalone="no"?>
<svg
   xmlns:dc="http://purl.org/dc/elements/1.1/"
   xmlns:cc="http://creativecommons.org/ns#"
   xmlns:rdf="http://www.w3.org/1999/02/22-rdf-syntax-ns#"
   xmlns:svg="http://www.w3.org/2000/svg"
   xmlns="http://www.w3.org/2000/svg"
   xmlns:sodipodi="http://sodipodi.sourceforge.net/DTD/sodipodi-0.dtd"
   xmlns:inkscape="http://www.inkscape.org/namespaces/inkscape"
   width="48"
   height="48"
   viewBox="0 0 12.7 12.7"
   version="1.1"
   id="svg4"
   sodipodi:docname="flash.svg"
   inkscape:version="0.92.4 (5da689c313, 2019-01-14)">
  <metadata
     id="metadata10">
    <rdf:RDF>
      <cc:Work
         rdf:about="">
        <dc:format>image/svg+xml</dc:format>
        <dc:type
           rdf:resource="http://purl.org/dc/dcmitype/StillImage" />
        <dc:title></dc:title>
      </cc:Work>
    </rdf:RDF>
  </metadata>
  <defs
     id="defs8" />
  <sodipodi:namedview
     pagecolor="#ffffff"
     bordercolor="#666666"
     borderopacity="1"
     objecttolerance="10"
     gridtolerance="10"
     guidetolerance="10"
     inkscape:pageopacity="0"
     inkscape:pageshadow="2"
     inkscape:window-width="1087"
     inkscape:window-height="480"
     id="namedview6"
     showgrid="false"
     inkscape:zoom="4.9166667"
     inkscape:cx="2.1355932"
     inkscape:cy="24"
     inkscape:window-x="0"
     inkscape:window-y="25"
     inkscape:window-maximized="0"
     inkscape:current-layer="svg4" />
  <path
     d="M 6.35,0.083 A 6.267,6.267 0 0 0 0.084,6.35 6.267,6.267 0 0 0 6.352,12.617 6.267,6.267 0 0 0 12.618,6.35 6.267,6.267 0 0 0 6.351,0.083 Z M 6.333,1.015 a 5.388,5.388 0 0 1 5.388,5.39 5.388,5.388 0 0 1 -5.388,5.387 5.388,5.388 0 0 1 -5.39,-5.388 5.388,5.388 0 0 1 5.39,-5.389 z M 9.194,2.648 C 8.674,2.656 6.55,2.882 5.697,5.997 4.99,8.574 3.682,8.589 3.44,8.568 v 1.48 c 0.245,0.019 2.388,0.1 3.381,-2.902 h 1.91 V 5.558 H 7.483 C 7.53,5.393 7.913,4.198 9.26,4.144 V 2.648 Z"
     id="path2"
     inkscape:connector-curvature="0"
     style="fill:#2ca02c" />
</svg>

<svg xmlns="http://www.w3.org/2000/svg" width="48" height="48" viewBox="0 0 12.7 12.7"><path d="M6.35.08A6.27 6.27 0 0 0 .08 6.35a6.27 6.27 0 0 0 6.27 6.27 6.27 6.27 0 0 0 6.27-6.27A6.27 6.27 0 0 0 6.35.08zm-.02.94a5.39 5.39 0 0 1 5.4 5.38 5.39 5.39 0 0 1-5.4 5.4A5.39 5.39 0 0 1 .94 6.4a5.39 5.39 0 0 1 5.4-5.39zM9.2 2.65c-.52 0-2.64.23-3.5 3.35-.7 2.57-2 2.59-2.25 2.57v1.48c.24.02 2.39.1 3.38-2.9h1.91v-1.6H7.48c.05-.16.43-1.35 1.78-1.4v-1.5h-.07z" fill="#2ca02c"/></svg>
